assets/svg/1F351.svg

<svg xmlns="http://www.w3.org/2000/svg" viewBox="0 0 64 64" enable-background="new 0 0 64 64"><path fill="#f05a28" d="m53.44 28.481c0 14.503-11.754 26.26-26.26 26.26s-26.26-11.755-26.26-26.26c0-14.507 11.753-15.945 26.26-15.945s26.26 1.438 26.26 15.945"/><path fill="#d14227" d="m15.84 28.481c0-12.643 7.191-15.359 16.773-15.848-1.752-.074-3.568-.098-5.43-.098-14.506 0-26.26 1.438-26.26 15.945 0 14.503 11.753 26.26 26.26 26.26 1.862 0 3.678-.199 5.43-.566-9.582-2.504-16.773-13.05-16.773-25.691"/><path fill="#04a69c" d="m12.534 8.776c-5.532 1.619-12.713 15.234-12.531 18.12.184 2.876 10.771-3.521 16.926-6.58 6.333-3.148 12.844-6.106 12.66-8.987-.184-2.884-11.525-4.169-17.05-2.556"/><g fill="#8a5d3b"><path d="m34.61 1.785c.07.195-.656 1.25-.756 1.315-2.542 1.584-4.834 8.385-5.11 9.364-.637 2.271-2.587 4.193-3.453 3.408-.827-.756-.08-5.642.031-6.63.279-2.417 1.354-5.09 2.813-7.04 1.54-2.064 5.366-3.504 6.475-.415"/><path d="m61.4 27.11c-.131-.055-.711.465-.742.535-.713 1.864-4.736 3.42-5.318 3.607-1.36.426-2.354 1.836-1.759 2.5.566.63 3.562.181 4.17.118 1.488-.153 3.056-.896 4.119-1.943 1.124-1.101 1.601-3.922-.47-4.817"/></g><path fill="#f05a28" d="m61.852 38.912c3.534 8.01-2.229 18.305-12.867 22.998-10.642 4.694-22.13 2.01-25.664-5.998-3.533-8.01 2.228-18.31 12.867-23 10.639-4.697 22.13-2.01 25.664 6"/><path fill="#d14227" d="m32.41 55.908c-3.533-8.01 2.228-18.31 12.867-23 1.964-.868 3.955-1.477 5.919-1.852-4.541-.946-9.87-.415-15.01 1.852-10.64 4.693-16.4 14.991-12.867 23 2.88 6.53 11.05 9.516 19.743 7.851-4.865-1.01-8.826-3.712-10.653-7.851"/><path fill="#faaf40" d="m57.723 33.534c2.065 4.683-4.229 11.994-14.06 16.328-9.824 4.334-19.467 4.057-21.533-.625-2.067-4.683 4.229-11.994 14.05-16.328 9.827-4.334 19.468-4.056 21.536.625"/><path fill="#8a5d3b" d="m48.689 36.02c.725 1.648-3.03 4.904-8.393 7.269-5.362 2.368-10.298 2.946-11.03 1.297-.727-1.648 3.03-4.904 8.394-7.272 5.365-2.366 10.301-2.944 11.03-1.294"/></svg>

<?xml version="1.0" encoding="UTF-8" standalone="no"?>
<!-- Generator: Adobe Illustrator 16.0.0, SVG Export Plug-In . SVG Version: 6.00 Build 0)  -->

<svg
   xmlns:dc="http://purl.org/dc/elements/1.1/"
   xmlns:cc="http://creativecommons.org/ns#"
   xmlns:rdf="http://www.w3.org/1999/02/22-rdf-syntax-ns#"
   xmlns:svg="http://www.w3.org/2000/svg"
   xmlns="http://www.w3.org/2000/svg"
   xmlns:sodipodi="http://sodipodi.sourceforge.net/DTD/sodipodi-0.dtd"
   xmlns:inkscape="http://www.inkscape.org/namespaces/inkscape"
   version="1.1"
   id="Layer_1"
   x="0px"
   y="0px"
   width="64px"
   height="64px"
   viewBox="0 0 64 64"
   enable-background="new 0 0 64 64"
   xml:space="preserve"
   inkscape:version="0.48.5 r10040"
   sodipodi:docname="1F351.svg"
   inkscape:export-filename="D:\TESTINGEMOJI\SVGTEST\1F351.png"
   inkscape:export-xdpi="90"
   inkscape:export-ydpi="90"><metadata
   id="metadata3529"><rdf:RDF><cc:Work
       rdf:about=""><dc:format>image/svg+xml</dc:format><dc:type
         rdf:resource="http://purl.org/dc/dcmitype/StillImage" /><dc:title></dc:title></cc:Work></rdf:RDF></metadata><defs
   id="defs3527" /><sodipodi:namedview
   pagecolor="#ffffff"
   bordercolor="#666666"
   borderopacity="1"
   objecttolerance="10"
   gridtolerance="10"
   guidetolerance="10"
   inkscape:pageopacity="0"
   inkscape:pageshadow="2"
   inkscape:window-width="640"
   inkscape:window-height="480"
   id="namedview3525"
   showgrid="false"
   inkscape:zoom="3.6875"
   inkscape:cx="32"
   inkscape:cy="32"
   inkscape:window-x="463"
   inkscape:window-y="320"
   inkscape:window-maximized="0"
   inkscape:current-layer="Layer_1" />
<g
   id="g3505">
	<path
   fill="#F05A28"
   d="M53.443,28.481c0,14.503-11.754,26.258-26.26,26.258S0.923,42.984,0.923,28.481   c0-14.507,11.753-15.945,26.26-15.945S53.443,13.974,53.443,28.481z"
   id="path3507" />
	<path
   fill="#D14227"
   d="M15.84,28.481c0-12.643,7.191-15.359,16.773-15.848c-1.752-0.074-3.568-0.098-5.43-0.098   c-14.506,0-26.26,1.438-26.26,15.945c0,14.503,11.753,26.258,26.26,26.258c1.862,0,3.678-0.199,5.43-0.566   C23.031,51.668,15.84,41.12,15.84,28.481z"
   id="path3509" />
	<path
   fill="#04A69C"
   d="M12.534,8.776C7.002,10.395-0.179,24.01,0.003,26.899c0.184,2.876,10.771-3.521,16.926-6.58   c6.333-3.148,12.844-6.106,12.66-8.987C29.405,8.448,18.064,7.163,12.534,8.776z"
   id="path3511" />
	<path
   fill="#8A5D3B"
   d="M34.61,1.785c0.07,0.195-0.656,1.25-0.756,1.315c-2.542,1.584-4.834,8.385-5.11,9.364   c-0.637,2.271-2.587,4.193-3.453,3.408c-0.827-0.756-0.08-5.642,0.031-6.63c0.279-2.417,1.354-5.09,2.813-7.042   C29.675,0.136,33.501-1.304,34.61,1.785z"
   id="path3513" />
	<path
   fill="#8A5D3B"
   d="M61.396,27.114c-0.131-0.055-0.711,0.465-0.742,0.535c-0.713,1.864-4.736,3.42-5.318,3.607   c-1.36,0.426-2.354,1.836-1.759,2.5c0.566,0.63,3.562,0.181,4.17,0.118c1.488-0.153,3.056-0.896,4.119-1.943   C62.99,30.83,63.467,28.009,61.396,27.114z"
   id="path3515" />
	<path
   fill="#F05A28"
   d="M61.852,38.912c3.534,8.008-2.229,18.305-12.867,22.998c-10.642,4.694-22.131,2.009-25.664-5.998   c-3.533-8.012,2.228-18.31,12.867-23.003C46.827,28.212,58.318,30.9,61.852,38.912z"
   id="path3517" />
	<path
   fill="#D14227"
   d="M32.41,55.908c-3.533-8.012,2.228-18.31,12.867-23.003c1.964-0.868,3.955-1.477,5.919-1.852   c-4.541-0.946-9.87-0.415-15.009,1.852c-10.64,4.693-16.4,14.991-12.867,23.003c2.88,6.53,11.052,9.516,19.743,7.851   C38.198,62.751,34.237,60.047,32.41,55.908z"
   id="path3519" />
	<path
   fill="#FAAF40"
   d="M57.723,33.534c2.065,4.683-4.229,11.994-14.058,16.328c-9.824,4.334-19.467,4.057-21.533-0.625   c-2.067-4.683,4.229-11.994,14.055-16.328C46.014,28.575,55.655,28.853,57.723,33.534z"
   id="path3521" />
	<path
   fill="#8A5D3B"
   d="M48.689,36.021c0.725,1.648-3.027,4.904-8.393,7.269c-5.362,2.368-10.298,2.946-11.029,1.297   c-0.727-1.648,3.031-4.904,8.394-7.272C43.026,34.949,47.962,34.371,48.689,36.021z"
   id="path3523" />
</g>
</svg>
